X:10601
T:The Maid Behind the Bar
R:Reel
B:Tuneworks Tunebook (https://www.tuneworks.co.uk/
G:tuneworks
Z:Jon Warbrick, jon.warbrick@googlemail.com
M:4/4
L:1/8
K:D
|: "D"FAAB AFED | EAAB ABde | "Bm"fBBA Bcde | f2 gf "A"edBA | 
"D"FAAB AFED | EAAB ABde | "Bm"fBBA BcdB | "A"AFEF "D"D4 :|
|: "D"fgag fede | fdad fd d2 | "G"efga bgef | "A"gebe gfeg | 
"D"fgaf bfaf | defd e2 de | "G"fBBA BcdB | "A"AFEF "D"D4 :|
